brandFactory_export/2.Regular/Comprar celulares_2Regular.svg

<?xml version="1.0" encoding="UTF-8"?>
<svg width="24px" height="24px" viewBox="0 0 24 24" version="1.1" xmlns="http://www.w3.org/2000/svg" xmlns:xlink="http://www.w3.org/1999/xlink">
    <title>2.Regular/Comprar celulares_2Regular</title>
    <g id="Symbols" stroke="none" stroke-width="1" fill="none" fill-rule="evenodd">
        <g id="2.Regular/Comprar-celulares_2Regular" fill="#5CB615" fill-rule="nonzero">
            <path d="M10.1714286,19.6436975 C10.7697479,19.6436975 11.2537815,19.8151261 11.6033613,20.1512605 C11.9697479,20.5042017 12.1546218,20.9983193 12.1546218,21.6268908 C12.1546218,22.2554622 11.9697479,22.7495798 11.6033613,23.102521 C11.2571429,23.4386555 10.7731092,23.610084 10.1714286,23.610084 C9.5697479,23.610084 9.08907563,23.4386555 8.7394958,23.102521 C8.37310924,22.7495798 8.18823529,22.2554622 8.18823529,21.6268908 C8.18823529,20.9983193 8.37310924,20.5042017 8.7394958,20.1512605 C9.08907563,19.8151261 9.57310924,19.6436975 10.1714286,19.6436975 Z M16.7260504,19.6436975 C17.3243697,19.6436975 17.8084034,19.8151261 18.1579832,20.1512605 C18.5210084,20.5042017 18.7092437,20.9983193 18.7092437,21.6268908 C18.7092437,22.2554622 18.5243697,22.7495798 18.1579832,23.102521 C17.8117647,23.4386555 17.3277311,23.610084 16.7260504,23.610084 C16.1243697,23.610084 15.6436975,23.4386555 15.2941176,23.102521 C14.9277311,22.7495798 14.7428571,22.2554622 14.7428571,21.6268908 C14.7428571,20.9983193 14.9277311,20.5042017 15.2941176,20.1512605 C15.6436975,19.8151261 16.1277311,19.6436975 16.7260504,19.6436975 Z M10.1714286,20.9882353 C9.68067227,20.9882353 9.53277311,21.1361345 9.53277311,21.6268908 C9.53277311,22.1176471 9.68067227,22.2655462 10.1714286,22.2655462 C10.6621849,22.2655462 10.810084,22.1176471 10.810084,21.6268908 C10.810084,21.1361345 10.6621849,20.9882353 10.1714286,20.9882353 Z M16.7260504,20.9882353 C16.2352941,20.9882353 16.087395,21.1361345 16.087395,21.6268908 C16.087395,22.1176471 16.2352941,22.2655462 16.7260504,22.2655462 C17.2168067,22.2655462 17.3647059,22.1176471 17.3647059,21.6268908 C17.3647059,21.1361345 17.2168067,20.9882353 16.7260504,20.9882353 Z M16.6789916,0.00672268908 C18.1310924,0.00672268908 18.8672269,0.749579832 18.8672269,2.21848739 L18.8664454,5.56272269 L22.9243697,5.56302521 C23.2941176,5.56302521 23.5966387,5.86554622 23.5966387,6.23529412 C23.5966387,6.29243697 23.589916,6.34621849 23.5764706,6.4 C23.3915966,7.13277311 23.0420168,8.53781513 22.6689076,10.0302521 C22.2151261,11.8453782 21.7512605,13.7243697 21.6067227,14.2689076 C21.287395,15.4991597 20.8235294,16.4033613 20.1882353,17.0386555 C19.5193277,17.707563 18.6756303,18.0470588 17.6806723,18.0470588 L10.1714286,18.0470588 C9.16638655,18.0470588 8.27563025,17.707563 7.59327731,17.0689076 C6.88403361,16.4 6.42352941,15.4352941 6.22857143,14.2016807 C6.07394958,13.2168067 4.48739496,4.01008403 4.26554622,2.7697479 C4.1210084,1.96302521 3.28067227,1.35798319 2.30588235,1.35798319 L0.685714285,1.35798319 C0.315966386,1.35798319 0.0134453779,1.05546218 0.0134453779,0.685714286 C0.0134453779,0.315966387 0.315966386,0.0134453782 0.685714285,0.0134453782 L2.3092437,0.0134453782 C3.94957983,0.0134453782 5.33109244,1.07226891 5.59327731,2.53445378 C5.65172529,2.86132954 5.85899503,4.05464761 6.1189071,5.55831818 L9.98944538,5.55872269 L9.98991597,2.21848739 C9.98991597,0.769747899 10.7462185,0.00672268908 12.1781513,0.00672268908 L16.6789916,0.00672268908 Z M9.98944538,6.90372269 L6.35126166,6.90397583 C6.86495313,9.88189662 7.46249901,13.3644958 7.56302521,13.9932773 C7.71092437,14.9243697 8.0302521,15.6268908 8.5210084,16.0907563 C8.9512605,16.497479 9.5092437,16.7058824 10.1747899,16.7058824 L17.6806723,16.7058824 C18.5008403,16.7058824 19.6638655,16.4201681 20.3058824,13.9327731 C20.4470588,13.3915966 20.9109244,11.5193277 21.3647059,9.70420168 C21.6235294,8.66554622 21.8722689,7.66386555 22.0638655,6.90756303 L18.8664454,6.90672269 L18.8672269,11.0756303 C18.8638655,12.5445378 18.1277311,13.2907563 16.6789916,13.2907563 L12.1781513,13.2907563 C10.7260504,13.2907563 9.98991597,12.5478992 9.98991597,11.0789916 L9.98944538,6.90372269 Z M16.6789916,1.01512605 L12.1781513,1.01512605 C11.307563,1.01512605 10.9983193,1.33109244 10.9983193,2.21848739 L10.9983193,11.0756303 C10.9983193,11.9865546 11.2840336,12.2789916 12.1781513,12.2789916 L16.6789916,12.2789916 C17.5697479,12.2789916 17.8588235,11.9865546 17.8588235,11.0756303 L17.8588235,2.21848739 C17.8588235,1.30756303 17.5731092,1.01512605 16.6789916,1.01512605 Z M14.4268908,9.79159664 C14.8571429,9.79159664 15.1361345,10.0168067 15.1327731,10.5008403 C15.1327731,10.7361345 15.0689076,10.907563 14.9546218,11.0252101 C14.8302521,11.1529412 14.6487395,11.2134454 14.4268908,11.2134454 C14.205042,11.2134454 14.0235294,11.1529412 13.8991597,11.0252101 C13.7848739,10.907563 13.7210084,10.7327731 13.7210084,10.5008403 C13.7210084,10.0168067 13.9966387,9.79159664 14.4268908,9.79159664 Z" id="Comprar-celulares_2Regular"></path>
        </g>
    </g>
</svg>

<svg width="24" height="24" viewBox="0 0 24 24" xmlns="http://www.w3.org/2000/svg"><path d="M10.171 19.644c.599 0 1.083.171 1.432.507.367.353.552.847.552 1.476 0 .628-.185 1.123-.552 1.476-.346.336-.83.507-1.432.507-.601 0-1.082-.171-1.432-.507-.366-.353-.55-.848-.55-1.476 0-.629.184-1.123.55-1.476.35-.336.834-.507 1.432-.507zm6.555 0c.598 0 1.082.171 1.432.507.363.353.551.847.551 1.476 0 .628-.185 1.123-.551 1.476-.346.336-.83.507-1.432.507s-1.082-.171-1.432-.507c-.366-.353-.551-.848-.551-1.476 0-.629.185-1.123.551-1.476.35-.336.834-.507 1.432-.507zm-6.555 1.344c-.49 0-.638.148-.638.639 0 .49.148.639.638.639.491 0 .64-.148.64-.64 0-.49-.149-.638-.64-.638zm6.555 0c-.49 0-.639.148-.639.639 0 .49.148.639.64.639.49 0 .638-.148.638-.64 0-.49-.148-.638-.639-.638zM16.68.007c1.452 0 2.188.743 2.188 2.211v3.345h4.057a.674.674 0 01.652.837l-.907 3.63c-.454 1.815-.918 3.694-1.062 4.239-.32 1.23-.783 2.134-1.419 2.77-.669.669-1.512 1.008-2.507 1.008h-7.51c-1.005 0-1.895-.34-2.578-.978-.709-.669-1.17-1.634-1.364-2.867C6.074 13.217 4.487 4.01 4.266 2.77c-.145-.807-.985-1.412-1.96-1.412H.686A.674.674 0 01.013.686c0-.37.303-.673.673-.673h1.623c1.64 0 3.022 1.06 3.284 2.521.059.327.266 1.52.526 3.024h3.87v-3.34c0-1.448.757-2.211 2.19-2.211h4.5zm-6.69 6.897H6.351c.514 2.978 1.111 6.46 1.212 7.09.148.93.467 1.633.958 2.097.43.406.988.615 1.654.615h7.506c.82 0 1.983-.286 2.625-2.773.141-.541.605-2.414 1.059-4.229.259-1.038.507-2.04.699-2.796l-3.198-.001.001 4.169c-.003 1.469-.74 2.215-2.188 2.215h-4.5c-1.453 0-2.19-.743-2.19-2.212V6.904zm6.69-5.889h-4.5c-.871 0-1.18.316-1.18 1.203v8.858c0 .91.285 1.203 1.18 1.203h4.5c.89 0 1.18-.292 1.18-1.203V2.218c0-.91-.286-1.203-1.18-1.203zm-2.252 8.777c.43 0 .71.225.706.709 0 .235-.064.407-.178.524-.125.128-.306.188-.528.188-.222 0-.403-.06-.528-.188-.114-.117-.178-.292-.178-.524 0-.484.276-.71.706-.71z" fill="#5CB615" fill-rule="nonzero"/></svg>
